static/images/jetpack/jetpack-logo.svg

<svg height="18" viewBox="0 0 18 18" width="18" xmlns="http://www.w3.org/2000/svg"><path d="m13.0046359 9.25823605-3.51859424 6.09575545v-8.4555908l2.82697334.71956273c.7171285.18256292 1.0616029.99941966.6916209 1.64027262zm-4.35524424 1.84336325-2.82697329-.7195627c-.71712858-.182563-1.06160294-.99941969-.69162095-1.64027265l3.51859424-6.09575545zm.35066907-11.1015993c-4.97058526 0-9.00006073 4.0293812-9.00006073 9s4.02947547 9 9.00006073 9c4.97046377 0 8.99993927-4.0293812 8.99993927-9s-4.0294755-9-8.99993927-9z" fill="#ccced0" fill-rule="evenodd"/></svg>

<?xml version="1.0" encoding="UTF-8" standalone="no"?>
<svg width="18px" height="18px" viewBox="0 0 18 18" version="1.1" xmlns="http://www.w3.org/2000/svg" xmlns:xlink="http://www.w3.org/1999/xlink" xmlns:sketch="http://www.bohemiancoding.com/sketch/ns">
    <!-- Generator: Sketch 3.5.2 (25235) - http://www.bohemiancoding.com/sketch -->
    <title>Fill 1</title>
    <desc>Created with Sketch.</desc>
    <defs></defs>
    <g id="Page-1" stroke="none" stroke-width="1" fill="none" fill-rule="evenodd" sketch:type="MSPage">
        <path d="M13.0046359,9.25823605 L9.48604166,15.3539915 L9.48604166,6.8984007 L12.313015,7.61796343 C13.0301435,7.80052635 13.3746179,8.61738309 13.0046359,9.25823605 L13.0046359,9.25823605 Z M8.64939166,11.1015993 L5.82241837,10.3820366 C5.10528979,10.1994736 4.76081543,9.38261691 5.13079742,8.74176395 L8.64939166,2.6460085 L8.64939166,11.1015993 Z M9.00006073,0 C4.02947547,0 0,4.0293812 0,9 C0,13.9706188 4.02947547,18 9.00006073,18 C13.9705245,18 18,13.9706188 18,9 C18,4.0293812 13.9705245,0 9.00006073,0 L9.00006073,0 Z" id="Fill-1" fill="#CCCED0" sketch:type="MSShapeGroup"></path>
    </g>
</svg>
